X:1
T:Pentecost (Selby), 886
T:Pentecost (Selby), 886
T:Bertram Luard-Selby (1853-1918)
T:Public Domain Courtesy of the Cyber Hymnal™
C:Bertram Luard-Selby (1853-1918)
Z:Public Domain
Z:Courtesy of the Cyber Hymnal™
%%score ( 1 2 ) ( 3 4 )
L:1/8
Q:1/4=115
M:3/4
K:Ab
V:1 treble 
V:2 treble 
V:3 bass 
V:4 bass 
V:1
 [EA]2 | [FA]4 [EB]2 | (c2 B2) [EA]2 | [EG]4 [=DF]2 | E4 E2 | [DF]4 [DG]2 | [CA]4 [Ed]2 | %7
 (c2 z) z x6 | [EB]6 | [Ec]4 [Fd]2 | [Ge]4 [Ac]2 | B6 | [CA]4 |] %13
V:2
 x2 | x6 | E4 x2 | x6 | E4 E2 | x6 | x6 | E4- B2 E A2 =D | x6 | x6 | x6 | (F2 E2 D2) | x4 |] %13
V:3
 [A,C]2 | [F,C]4 [G,B,]2 | A,2 [G,B,]2 [A,C]2 | B,4 [B,,A,]2 | [E,G,]4 [C,A,]2 | A,4 [B,,B,]2 | %6
 [F,A,]4 [G,B,]2 | A,2 [G,B,]2 [F,B,]2 x4 | [E,G,]6 | A,4 [F,A,]2 | [E,B,]4 [F,A,]2 | %11
 ([D,A,]2 [E,G,]4) | [A,,A,]4 |] %13
V:4
 x2 | x6 | A,2 x4 | B,4 x2 | x6 | (D,2 C,2) x2 | x6 | A,2 x8 | x6 | (A,2 G,2) x2 | x6 | x6 | x4 |] %13

